modules/stroke-7/icons/trash.svg

<?xml version="1.0" encoding="utf-8"?>
<!-- Generated by IcoMoon.io -->
<!DOCTYPE svg PUBLIC "-//W3C//DTD SVG 1.1//EN" "http://www.w3.org/Graphics/SVG/1.1/DTD/svg11.dtd">
<svg version="1.1" xmlns="http://www.w3.org/2000/svg" xmlns:xlink="http://www.w3.org/1999/xlink" width="32" height="32" viewBox="0 0 32 32">
<g id="icomoon-ignore">
</g>
<path d="M26.129 5.871h-5.331v-1.066c0-1.178-0.955-2.132-2.133-2.132h-5.331c-1.178 0-2.133 0.955-2.133 2.132v1.066h-5.331v1.066h1.099l1.067 20.259c0 1.178 0.955 2.133 2.133 2.133h11.729c1.178 0 2.133-0.955 2.133-2.133l1.049-20.259h1.051v-1.066zM12.268 4.804c0-0.588 0.479-1.066 1.066-1.066h5.331c0.588 0 1.066 0.478 1.066 1.066v1.066h-7.464v-1.066zM22.966 27.14l-0.002 0.027v0.028c0 0.587-0.478 1.066-1.066 1.066h-11.729c-0.587 0-1.066-0.479-1.066-1.066v-0.028l-0.001-0.028-1.065-20.203h15.975l-1.046 20.204z" fill="#000000"></path>
<path d="M15.467 9.069h1.066v17.060h-1.066v-17.060z" fill="#000000"></path>
<path d="M13.358 26.095l-1.091-17.027-1.064 0.068 1.091 17.027z" fill="#000000"></path>
<path d="M20.805 9.103l-1.064-0.067-1.076 17.060 1.064 0.067z" fill="#000000"></path>
</svg>

<svg xmlns="http://www.w3.org/2000/svg" width="32" height="32" viewBox="0 0 32 32"><path d="M26.129 5.871h-5.331V4.805a2.132 2.132 0 0 0-2.133-2.132h-5.331a2.133 2.133 0 0 0-2.133 2.132v1.066H5.87v1.066h1.099l1.067 20.259c0 1.178.955 2.133 2.133 2.133h11.729a2.133 2.133 0 0 0 2.133-2.133L25.08 6.937h1.051V5.871zM12.268 4.804c0-.588.479-1.066 1.066-1.066h5.331c.588 0 1.066.478 1.066 1.066V5.87h-7.464V4.804zM22.966 27.14l-.002.027v.028c0 .587-.478 1.066-1.066 1.066H10.169a1.068 1.068 0 0 1-1.066-1.066v-.028l-.001-.028L8.037 6.936h15.975L22.966 27.14z"/><path d="M15.467 9.069h1.066v17.06h-1.066V9.069zM13.358 26.095L12.267 9.068l-1.064.068 1.091 17.027zM20.805 9.103l-1.064-.067-1.076 17.06 1.064.067z"/></svg>
